public/images/case-studies/speakinc/feature6.svg

<svg width="64" height="64" viewBox="0 0 64 64" fill="none" xmlns="http://www.w3.org/2000/svg">
<path d="M49.3333 53.3334C49.1706 53.3334 49.0106 53.3041 48.8533 53.2454L14.1866 39.9121C13.6719 39.7147 13.3333 39.2187 13.3333 38.6667V22.6667C13.3333 22.1147 13.6719 21.6187 14.1866 21.4214L48.8533 8.08808C49.2666 7.92808 49.7226 7.98674 50.0879 8.23474C50.4506 8.48274 50.6666 8.89341 50.6666 9.33341V52.0001C50.6666 52.4401 50.4506 52.8507 50.0879 53.0987C49.8613 53.2534 49.5999 53.3334 49.3333 53.3334ZM15.9999 37.7494L47.9999 50.0587V11.2747L15.9999 23.5841V37.7494Z" fill="#FF6B00"/>
<path d="M20.0002 58.6667H12.0002C11.3362 58.6667 10.7735 58.1787 10.6802 57.52L8.01353 38.8533C7.90953 38.1253 8.4162 37.4507 9.14687 37.3467C9.86153 37.256 10.5495 37.7493 10.6535 38.48L13.1575 56H18.5069L16.7255 40.1227C16.6455 39.392 17.1709 38.7333 17.9015 38.648C18.6082 38.5707 19.2909 39.0933 19.3762 39.824L21.3229 57.184C21.3655 57.5627 21.2455 57.9387 20.9922 58.2213C20.7415 58.504 20.3815 58.6667 20.0002 58.6667Z" fill="#FF6B00"/>
<path d="M54.6668 24C54.2375 24 53.8162 23.792 53.5575 23.4053C53.1495 22.7947 53.3148 21.9653 53.9282 21.5573L61.9282 16.224C62.5362 15.8187 63.3655 15.9787 63.7762 16.5947C64.1842 17.2053 64.0188 18.0347 63.4055 18.4427L55.4055 23.776C55.1788 23.928 54.9228 24 54.6668 24Z" fill="#7F8284"/>
<path d="M62.6666 48.0001C62.4106 48.0001 62.1546 47.9281 61.928 47.7761L53.928 42.4427C53.3173 42.0347 53.1493 41.2054 53.5573 40.5947C53.968 39.9814 54.8 39.8187 55.4053 40.2241L63.4053 45.5574C64.016 45.9654 64.184 46.7947 63.776 47.4054C63.5173 47.7921 63.096 48.0001 62.6666 48.0001Z" fill="#7F8284"/>
<path d="M62.6666 33.3334H54.6666C53.9306 33.3334 53.3333 32.7361 53.3333 32.0001C53.3333 31.2641 53.9306 30.6667 54.6666 30.6667H62.6666C63.4026 30.6667 63.9999 31.2641 63.9999 32.0001C63.9999 32.7361 63.4026 33.3334 62.6666 33.3334Z" fill="#7F8284"/>
<path d="M14.6667 39.9999H5.33333C2.392 39.9999 0 37.6079 0 34.6666V26.6666C0 23.7253 2.392 21.3333 5.33333 21.3333H14.6667C15.4027 21.3333 16 21.9306 16 22.6666V38.6666C16 39.4026 15.4027 39.9999 14.6667 39.9999ZM5.33333 23.9999C3.86133 23.9999 2.66667 25.1946 2.66667 26.6666V34.6666C2.66667 36.1386 3.86133 37.3333 5.33333 37.3333H13.3333V23.9999H5.33333Z" fill="#7F8284"/>
</svg>

<svg xmlns="http://www.w3.org/2000/svg" width="64" height="64" fill="none" xmlns:v="https://vecta.io/nano"><g fill="#ff6b00"><path d="M49.333 53.333c-.163 0-.323-.029-.48-.088L14.187 39.912c-.515-.197-.853-.693-.853-1.245v-16c0-.552.339-1.048.853-1.245L48.853 8.088a1.33 1.33 0 0 1 1.813 1.245V52a1.33 1.33 0 0 1-.579 1.099c-.227.155-.488.235-.755.235zM16 37.749l32 12.309V11.275L16 23.584v14.165z"/><path d="M20 58.667h-8c-.664 0-1.227-.488-1.32-1.147L8.014 38.853c-.104-.728.403-1.403 1.133-1.507a1.35 1.35 0 0 1 1.507 1.133L13.158 56h5.349l-1.781-15.877a1.34 1.34 0 0 1 1.176-1.475c.707-.077 1.389.445 1.475 1.176l1.947 17.36a1.33 1.33 0 0 1-.331 1.037c-.251.283-.611.445-.992.445z"/></g><g fill="#7f8284"><path d="M54.667 24a1.33 1.33 0 0 1-.738-2.443l8-5.333c.608-.405 1.437-.245 1.848.371a1.33 1.33 0 0 1-.371 1.848l-8 5.333a1.32 1.32 0 0 1-.739.224zm8 24a1.32 1.32 0 0 1-.739-.224l-8-5.333c-.611-.408-.779-1.237-.371-1.848a1.34 1.34 0 0 1 1.848-.371l8 5.333c.611.408.779 1.237.371 1.848a1.33 1.33 0 0 1-1.109.595z"/><path d="M62.667 33.333h-8c-.736 0-1.333-.597-1.333-1.333s.597-1.333 1.333-1.333h8c.736 0 1.333.597 1.333 1.333s-.597 1.333-1.333 1.333zm-48 6.667H5.333A5.34 5.34 0 0 1 0 34.667v-8a5.34 5.34 0 0 1 5.333-5.333h9.333c.736 0 1.333.597 1.333 1.333v16c0 .736-.597 1.333-1.333 1.333zM5.333 24a2.67 2.67 0 0 0-2.667 2.667v8a2.67 2.67 0 0 0 2.667 2.667h8V24h-8z"/></g></svg>
